X:1
T:Luna Sonata
T:Luna Sonata
T:L V Bethoven
C:L V Bethoven
%%score ( 1 2 3 )
L:1/8
M:4/4
K:D
V:1 treble nm="Piano" snm="Pno."
V:2 treble 
V:3 treble 
V:1
 (3FBd (3FBd (3FBd (3FBd | (3FBd (3FBd (3FBd (3FBd | (3GBd (3GBd (3G=ce (3Gce | %3
 (3F^Ae (3FBd (3FBc (3EAc | (3DFB (3FBd (3FBd f>f | (3F^Ae (3FAe (3FAe f>f | %6
 (3FBd (3FBd (3GBe (3GBe | (3FAd (3FAd (3GAc (3GAc | (3FAd (3FAd (3FAd (3FAd | %9
 (3=FAd (3FAd (3FAd =f>f | (3=FA_e (3FAe (3FAe =f>f | (3=F_Bd (3FBd (3E=Bd (3EBd | %12
 (3EA=c (3EAc D2 =F2 | (3EA=c (3EAc (3E^GB (3EGB | (3A=ce (3Ace (3A^ce [Aa]2 | %15
 (3z d=f (3z df (3z df (3z df | (3Ace (3Ace (3Ace (3Ace | (3z d=f (3z df (3z df (3z df | %18
 (3Ace (3Ace (3F=c^d (3Fcd | (3FB^d (3FBd (3GBe (3GBe | (3=FA=c (3FAc (3EG^c (3EGc | %21
 (3B,EG (3B,EG (3z EG (3z ^DF | (3z GB (3z Be (3z eg (3z eg | (3B^da (3Bda (3Bda (3Bda | %24
 (3Beg (3Beg (3^Aef (3B^df | (3^Acf (3Acf (3Acf (3Acf | (3Bdf (3Bdf (3Eeg (3^Ee^g | %27
 (3z ^Ac (3z Ac (3z Ac (3z Ac | (3z ^Ac (3z Bc (3z Bc (3z Bc | (3z DF (3z DF (3z DF (3z DF | %30
 (3z DF (3z DF (3z DF (3z DF | (3C(GE) (3^AGc (3A(ec) (3ge^a | (3DBF (3(dB)f (3dbf (3(d'b)f | %33
 (3B^ed (3^ged' (3gd'c' (3^e'd'^g' | (3z ^ag (3c'ae' (3c'g'e' (3^a'e'b' | %35
 (3^a'e'g' (3c'e'^a (3c'ga (3(eg)c | (3e^Ac (3GA(E (3G)CE (3B,EG | %37
 (3^A,EF{G} (3(GF)E (3CEG (3B,EG | (3^A,EF{G} (3(GF)E (3=CEG (3B,EG | %39
 (3^A,EF{G} (3(GF)E (3B,DB (3B,DB | (3CGB (3CGB (3CF^A (3CEA | (3DFB (3FBd (3FBd (3z Bd | %42
 (3F^Ae (3FAe (3FAe (3z Ae | (3FBd (3FBd (3GBe (3GBe | (3FAd (3FAd (3GAc (3GAc | %45
 (3FAd (3Adf (3Adf (3z df | (3Acg (3Acg (3Acg (3z cg | (3Adf (3Adf (3^Aef (3Bdf | %48
 (3^Acf (3Acf (3Bdf (3Bdf | (3Beg (3Beg (3^Acf (3Acf | (3Bdf (3Bdf (3B^df (3Bdf | %51
 (3z eg (3z eg (3z eg (3z eg | (3B^df (3Bdf (3Bdf (3Bdf | (3z eg (3z eg (3z eg (3z eg | %54
 (3B^df (3Bdf (3Beg (3Beg | (3Acg (3Acg (3Acg (3Adf | (3Gdf (3Gce (3Fce (3FBd | %57
 (3EBc (3EBc (3FBc (3GBc | (3FBd (3FBd (3E^Ac (3EAc | (3(DF)B (3FBd (3FBd (3z Bd | %60
 (3z ^Ae (3FAe (3FAe (3z Ae | (3z dB (3fdb (3fd'b (3(f'd')b | %62
 (3^ac'g (3a(eg) (3:2:4(ce)F/G/ (3GFE | (3BdB (3fdb (3fd'b (3(f'd')b | %64
 (3^ac'g (3a(eg) (3:2:4(ce)F/G/ (3GFE | (3BFB (3dBF{B} (3Bdf (3bfd | (3FBd (3fdB (3FBF (3DFD | %67
 B,4 !arpeggio![B,FBdfb]4 | !arpeggio![B,FBdfb]8 |] %69
V:2
 B,8 | A,8 | G,4 E,4 | F,4 F,4 | B,6 F2 | F,4 z2 F2 | B,4 E,4 | [B,f]4 A,4 | D8 | A,6 =F2 | %10
 =F,6 (3z A_e | _B,2 A,2 ^G,4 | A,4 (3z AB (3z AB | E,4 E,4 | A6 (3z ce | _b6 ^g2 | a6 a2 | %17
 _b6 ^g2 | a4 a4 | a4 g4 | =f4 e4 | B4 B2 B2 | E2 G2 B2 b>b | b6 b>b | b4 ^a2 b2 | c'6 c'2 | %26
 d'4 c'2 b2 | ^a2 f2 g2 e2 | F2 F2 G2 E2 | z2 B2 d2 B2 | z2 B2 d2 B2 | F,4 z4 | F,3 z z4 | F4 z4 | %34
 e2 z2 z4 | x8 | F,6 B,2 | F,4 C2 B,2 | F,4 =C2 B,2 | F,4 G,4 | E,4 F,4 | B6 f>f | f6 f>f | f4 g4 | %44
 f4 e2 f2 | d6 a>a | a6 a>a | a4 ^a2 b2 | c'4 d'4 | =c'4 ^a4 | b6 b2 | =c'6 ^a2 | b6 b2 | %53
 =c'6 ^a2 | b4 b4 | a6 a2 | g2 g2 f2 f2 | e4 f2 g2 | f4 f4 | B6 F>F | F6 F>F | G6 F>F | c6 ^A2 | %63
 B,6 FF/ x/ | c6 ^A2 | B,4 B4 | B,6 z2 | x8 | x8 |] %69
V:3
 x8 | x8 | x8 | x8 | z6 (3z Bd | f4 z2 (3z ^Ae | f4 g4 | z4 e2 a2 | d2 z2 z4 | z6 (3z Ad | =f6 z2 | %11
 =f4 z2 e2 | e4 =f2 d2 | e4 e4 | A,8 | [A,F]2 D2 =F2 D2 | (A,8 | [A,A]2) D2 =F2 D2 | A,4 A,4 | %19
 B,4 E,4 | A,4 ^A,4 | E,4 B,2 B,2 | E,8 | B,8 | E,4 C2 B,2 | ^A,6 A,2 | B,8 | F4 z4 | F,8 | F,8 | %30
 G,8 | z8 | x8 | x8 | F2 z2 z4 | x8 | x8 | x8 | x8 | x8 | x8 | B,6 F2 | F,6 F2 | B,4 E,4 | %44
 A,4 A,4 | D6 A2 | A,6 A2 | D4 C2 C2 | ^A,4 B,4 | E,4 F4 | B,8 | B,2 E2 G2 E2 | B,8 | %53
 B,2 E2 G2 E2 | B,4 E,4 | A,6 D2 | B,2 E,2 ^A,2 B,2 | G,4 F,2 E,2 | F,4 F,4 | B,6 F,2 | F,6 F,2 | %61
 B,4 z4 | F6 F,F,/ x/ | x8 | F6 F,F,/ x/ | x8 | x8 | x8 | x8 |] %69

